X: 39359
T: Tame Her When Da Snaw Comes
R: reel
M: 4/4
K: Gmajor
gfed egB2|AGAB AGAB|gfed egB2|AGAB G2G2:|
|:[G2G,2][G2G,2] EGDE|G2G2 AcBA|[G2G,2][G2G,2] EGDE|GBAF G2G2:|
|:gfed egB2|AGAB AGAB|gfed egB2|AGAB G2G2:|
|:[EG,][GG,][DG,][GG,] [EG,][GG,][D2G,2]|[DG,]GAB cBAG|
[EG,][GG,][DG,][GG,] [EG,][GG,][D2G,2]|1 [GG,]BAF G2G2:|2 [GG,]BAF [G2G,2][G2G,2]||

